svg/cutter.svg

<svg xmlns="http://www.w3.org/2000/svg" viewBox="0 0 63 56" enable-background="new 0 0 63 56"><style type="text/css">.st0{fill:#333333;}</style><title>cutter</title><desc>Created with Sketch.</desc><path class="st0" d="M61 1.8c-2.3-2.3-6.1-2.3-8.5 0l-31.1 31.2c-1.5-.2-3.1.2-4.2 1.4-1.4 1.4-1.8 3.6-1.1 5.4l-15.2 15.1 13.4.7 8.8-8.8c1.8.7 3.9.3 5.4-1.1 1.2-1.2 1.6-2.7 1.4-4.2l31.1-31.2c2.4-2.3 2.4-6.1 0-8.5zm-48.2 49.7l-2.7-.1 7.8-7.8 1.4 1.4-6.5 6.5zm12.9-8.7c-.4.4-1 .4-1.4 0l-4.3-4.2c-.4-.4-.4-1 0-1.4.4-.4 1-.4 1.4 0l4.2 4.2c.5.4.5 1 .1 1.4zm32.5-35.3l-29.7 29.7-2.8-2.8 29.7-29.8c.8-.8 2-.8 2.8 0 .8.8.8 2.1 0 2.9zM52.5 8.9l-21.2 21.2c-.4.4-.4 1 0 1.4s1 .4 1.4 0l21.2-21.2c.4-.4.4-1 0-1.4-.3-.4-1-.4-1.4 0z"/></svg>

<?xml version="1.0" encoding="utf-8"?>
<!-- Generator: Adobe Illustrator 21.0.0, SVG Export Plug-In . SVG Version: 6.00 Build 0)  -->
<svg version="1.1" id="Layer_1" xmlns="http://www.w3.org/2000/svg" xmlns:xlink="http://www.w3.org/1999/xlink" x="0px" y="0px"
	 viewBox="0 0 63 56" style="enable-background:new 0 0 63 56;" xml:space="preserve">
<style type="text/css">
	.st0{fill:#333333;}
</style>
<title>cutter</title>
<desc>Created with Sketch.</desc>
<g>
	<path class="st0" d="M61,1.8c-2.3-2.3-6.1-2.3-8.5,0L21.4,33c-1.5-0.2-3.1,0.2-4.2,1.4c-1.4,1.4-1.8,3.6-1.1,5.4L0.9,54.9l13.4,0.7
		l8.8-8.8c1.8,0.7,3.9,0.3,5.4-1.1c1.2-1.2,1.6-2.7,1.4-4.2L61,10.3C63.4,8,63.4,4.2,61,1.8z M12.8,51.5l-2.7-0.1l7.8-7.8l1.4,1.4
		L12.8,51.5z M25.7,42.8c-0.4,0.4-1,0.4-1.4,0L20,38.6c-0.4-0.4-0.4-1,0-1.4c0.4-0.4,1-0.4,1.4,0l4.2,4.2
		C26.1,41.8,26.1,42.4,25.7,42.8z M58.2,7.5L28.5,37.2l-2.8-2.8L55.4,4.6c0.8-0.8,2-0.8,2.8,0C59,5.4,59,6.7,58.2,7.5z"/>
	<path class="st0" d="M52.5,8.9L31.3,30.1c-0.4,0.4-0.4,1,0,1.4s1,0.4,1.4,0l21.2-21.2c0.4-0.4,0.4-1,0-1.4
		C53.6,8.5,52.9,8.5,52.5,8.9z"/>
</g>
</svg>
